img/icon-instagram.svg

<svg width="61" height="61" viewBox="0 0 61 61" fill="none" xmlns="http://www.w3.org/2000/svg">
<circle cx="30.5" cy="30.5" r="29" stroke="#F5F4F6" stroke-width="3"/>
<path d="M30.5017 12C25.4774 12 24.8468 12.022 22.8735 12.1118C20.904 12.202 19.5596 12.5138 18.3833 12.9713C17.1666 13.4438 16.1344 14.0759 15.1061 15.1045C14.077 16.1328 13.4449 17.165 12.9709 18.3813C12.5122 19.558 12.2 20.9027 12.1114 22.8714C12.0231 24.8448 12 25.4757 12 30.5C12 35.5243 12.0224 36.1529 12.1118 38.1262C12.2023 40.0957 12.5142 41.44 12.9713 42.6163C13.4442 43.8331 14.0763 44.8653 15.1049 45.8935C16.1329 46.9226 17.165 47.5562 18.381 48.0288C19.5581 48.4862 20.9028 48.798 22.8719 48.8882C24.8453 48.978 25.4755 49 30.4994 49C35.5242 49 36.1528 48.978 38.1261 48.8882C40.0956 48.798 41.4415 48.4862 42.6186 48.0288C43.835 47.5562 44.8656 46.9226 45.8935 45.8935C46.9226 44.8653 47.5547 43.8331 48.0287 42.6167C48.4835 41.4401 48.7957 40.0953 48.8882 38.1266C48.9769 36.1533 49 35.5243 49 30.5C49 25.4757 48.9769 24.8452 48.8882 22.8718C48.7957 20.9024 48.4835 19.558 48.0287 18.3817C47.5547 17.165 46.9226 16.1328 45.8935 15.1045C44.8644 14.0755 43.8354 13.4434 42.6174 12.9713C41.438 12.5138 40.0929 12.202 38.1234 12.1118C36.1501 12.022 35.5218 12 30.496 12H30.5017ZM28.8421 15.3339C29.3347 15.3331 29.8843 15.3339 30.5017 15.3339C35.4413 15.3339 36.0267 15.3516 37.9774 15.4402C39.7811 15.5227 40.7601 15.8241 41.4122 16.0773C42.2756 16.4126 42.8911 16.8135 43.5382 17.461C44.1857 18.1085 44.5865 18.7251 44.9226 19.5885C45.1759 20.2398 45.4776 21.2188 45.5597 23.0225C45.6484 24.9727 45.6677 25.5586 45.6677 30.4958C45.6677 35.4329 45.6484 36.0188 45.5597 37.969C45.4773 39.7727 45.1759 40.7517 44.9226 41.4031C44.5873 42.2664 44.1857 42.8811 43.5382 43.5282C42.8907 44.1757 42.2759 44.5766 41.4122 44.9119C40.7609 45.1663 39.7811 45.4669 37.9774 45.5494C36.0271 45.638 35.4413 45.6573 30.5017 45.6573C25.5618 45.6573 24.9763 45.638 23.0261 45.5494C21.2223 45.4661 20.2434 45.1647 19.5909 44.9115C18.7275 44.5762 18.1108 44.1754 17.4633 43.5279C16.8158 42.8804 16.415 42.2652 16.0789 41.4015C15.8257 40.7502 15.5239 39.7712 15.4418 37.9674C15.3532 36.0172 15.3354 35.4314 15.3354 30.4911C15.3354 25.5509 15.3532 24.9681 15.4418 23.0179C15.5243 21.2142 15.8257 20.2352 16.0789 19.5831C16.4142 18.7197 16.8158 18.1031 17.4633 17.4556C18.1108 16.8081 18.7275 16.4072 19.5909 16.0712C20.243 15.8168 21.2223 15.5162 23.0261 15.4333C24.7328 15.3562 25.3941 15.3331 28.8421 15.3292V15.3339ZM40.377 18.4056C39.1513 18.4056 38.157 19.3988 38.157 20.6249C38.157 21.8505 39.1513 22.8449 40.377 22.8449C41.6026 22.8449 42.597 21.8505 42.597 20.6249C42.597 19.3992 41.6026 18.4049 40.377 18.4049V18.4056ZM30.5017 20.9995C25.255 20.9995 21.0011 25.2533 21.0011 30.5C21.0011 35.7467 25.255 39.9986 30.5017 39.9986C35.7485 39.9986 40.0008 35.7467 40.0008 30.5C40.0008 25.2533 35.7481 20.9995 30.5013 20.9995H30.5017ZM30.5017 24.3333C33.9073 24.3333 36.6685 27.0941 36.6685 30.5C36.6685 33.9055 33.9073 36.6667 30.5017 36.6667C27.0958 36.6667 24.335 33.9055 24.335 30.5C24.335 27.0941 27.0958 24.3333 30.5017 24.3333V24.3333Z" fill="#F5F4F6"/>
</svg>

<svg width="61" height="61" fill="none" xmlns="http://www.w3.org/2000/svg"><circle cx="30.5" cy="30.5" r="29" stroke="#F5F4F6" stroke-width="3"/><path d="M30.502 12c-5.025 0-5.655.022-7.628.112-1.97.09-3.314.402-4.49.86a9.06 9.06 0 00-3.278 2.133 9.081 9.081 0 00-2.135 3.276c-.459 1.177-.771 2.522-.86 4.49C12.023 24.845 12 25.476 12 30.5c0 5.024.022 5.653.112 7.626.09 1.97.402 3.314.86 4.49a9.065 9.065 0 002.133 3.278 9.06 9.06 0 003.276 2.135c1.177.457 2.522.769 4.49.86 1.974.089 2.605.111 7.628.111 5.025 0 5.654-.022 7.627-.112 1.97-.09 3.316-.402 4.493-.86a9.052 9.052 0 003.275-2.134 9.08 9.08 0 002.135-3.277c.454-1.177.767-2.522.86-4.49.088-1.974.111-2.603.111-7.627 0-5.024-.023-5.655-.112-7.628-.092-1.97-.404-3.314-.86-4.49a9.079 9.079 0 00-2.134-3.278 9.041 9.041 0 00-3.277-2.133c-1.179-.457-2.524-.769-4.494-.86-1.973-.089-2.601-.111-7.627-.111h.006zm-1.66 3.334h1.66c4.94 0 5.525.018 7.475.106 1.804.083 2.783.384 3.435.637a5.72 5.72 0 012.126 1.384 5.741 5.741 0 011.385 2.128c.253.65.555 1.63.637 3.434.088 1.95.108 2.536.108 7.473 0 4.937-.02 5.523-.108 7.473-.083 1.804-.384 2.783-.637 3.434a5.72 5.72 0 01-1.385 2.125 5.721 5.721 0 01-2.126 1.384c-.651.254-1.63.555-3.435.637-1.95.089-2.536.108-7.475.108-4.94 0-5.526-.019-7.476-.108-1.804-.083-2.783-.384-3.435-.638a5.73 5.73 0 01-2.128-1.383A5.734 5.734 0 0116.08 41.4c-.253-.65-.555-1.63-.637-3.434-.089-1.95-.107-2.536-.107-7.476 0-4.94.018-5.523.107-7.473.082-1.804.384-2.783.637-3.435a5.731 5.731 0 011.384-2.127 5.74 5.74 0 012.128-1.385c.652-.254 1.631-.555 3.435-.638 1.707-.077 2.368-.1 5.816-.104v.005zm11.535 3.072a2.22 2.22 0 100 4.44 2.22 2.22 0 000-4.441zM30.502 21a9.5 9.5 0 00-9.5 9.5c0 5.247 4.253 9.499 9.5 9.499S40 35.747 40 30.5a9.5 9.5 0 00-9.5-9.5zm0 3.333a6.167 6.167 0 110 12.334 6.167 6.167 0 010-12.334z" fill="#F5F4F6"/></svg>
